X: 2
P: Polska efter Erik Larsa #2 (Irregular)
D: Mats & Ulf Andersson "L\aatar fr\aan F\"ollingetrakten i J\"amtland"
M: 3/4
L: 1/16
%%slurgraces 1
K: D
|: g | "D"f2e f2d d2f | "A7"a2f g2e e2f | "A7"~g2f/g/ a2e c2d |1,3 "A7"efe dcB A2 :|2,4 "A"efe "D"d3- d2 :|
|: g | "D"f2d f2a "G"{a}b3-| b2g "A7"~g2f/g/ a3- | "D"a2f e2d c2d | "A7"e2f gag faf |
     | e2c "D"def f2a | "G"b2g ~g2f/g/ "A7"a3- | "D"a2f e2d c2d | "A7"e2f gag faf | ege "D"d3- d2 :|
